src/icon/animals/hummingbird.svg

<svg enable-background="new 0 0 24 24" viewBox="0 0 24 24" xmlns="http://www.w3.org/2000/svg"><path d="m16.6 2h-7.6-1v.1c-3.4.5-6 3.4-6 6.9 0 2.2 1 4.3 2.7 5.6.6.4.3 1.4-.5 1.4h-2.2v6h15v-7.6c0-1.8-.9-3.4-2.2-4.4h4.6c2.5.2 2.7 3 2.7 3v-2.2-3.6c-.1-2.9-2.5-5.2-5.5-5.2zm-9.6 5c-.5 0-1-.5-1-1s.4-1 1-1c.5 0 1 .4 1 1 0 .5-.5 1-1 1zm4.4 1c-.8 0-1.4-.5-1.4-1.2v-2.8h6.6c1.9 0 3.4 1.4 3.4 3.2v1c-.3-.1-.5-.2-.8-.2z"/></svg>

<?xml version="1.0" encoding="utf-8"?>
<!-- Generator: Adobe Illustrator 18.0.0, SVG Export Plug-In . SVG Version: 6.00 Build 0)  -->
<!DOCTYPE svg PUBLIC "-//W3C//DTD SVG 1.1//EN" "http://www.w3.org/Graphics/SVG/1.1/DTD/svg11.dtd">
<svg version="1.1" id="Layer_1" xmlns="http://www.w3.org/2000/svg" xmlns:xlink="http://www.w3.org/1999/xlink" x="0px" y="0px"
	 viewBox="0 0 24 24" enable-background="new 0 0 24 24" xml:space="preserve">
<path d="M16.6,2H9l0,0c0,0,0,0,0,0H8v0.1C4.6,2.6,2,5.5,2,9c0,2.2,1,4.3,2.7,5.6C5.3,15,5,16,4.2,16H2v6h15v-7.6
	c0-1.8-0.9-3.4-2.2-4.4c0,0,4.5,0,4.6,0v0c2.5,0.2,2.7,3,2.7,3v-2.2V7.2C22,4.3,19.6,2,16.6,2z M7,7C6.5,7,6,6.5,6,6
	c0-0.5,0.4-1,1-1c0.5,0,1,0.4,1,1C8,6.5,7.5,7,7,7z M11.4,8C10.6,8,10,7.5,10,6.8V4h6.6C18.5,4,20,5.4,20,7.2v1
	C19.7,8.1,19.5,8,19.2,8H11.4z"/>
</svg>
